X: 68
T: Kan guayuanr
L: 1/8
M: 2/4
K: G
z d B d [I:setbarnb 1]| 
c BA2- | 
A d B d | 
B AG2- | 
G B ^A B | 
^G BA2 | 
A E A F | 
Ed3 | 
E D/ E/G2- | 
G B A B | 
G2D2 | 
E/ G/ E/ D/B,2 | 
B B/ A/ B B/ A/ | 
^G BA2 | 
G F E G | 
D EG2 | 
z D B, D | 
E D/ E/A2 | 
A E A F | 
ED3 |]

@@@ Tune index: 8942
